X: 34
T: bourre tournante de la grande potterie
C: trad. Fr.
M: 3/8
L: 1/8
R: bourree
K: Cmaj
e/f/|:g e e|e e e/f/|g e e|e>z d/e/|f d d|d>z c/d/|e c c|1 c>z e/f/:|2 c B A||
|:G2 A|G2 A|G c d| e3|d> e d|c B A|1 G A G|e2 c:|2 G e d|c2 e/f/||
